src/icons/outline/communication/microphone.svg

<svg width="24" height="24" viewBox="0 0 24 24" fill="none" xmlns="http://www.w3.org/2000/svg">
<g clip-path="url(#clip0_4191_682)">
<path d="M19.4521 9.26367C19.7648 9.32763 20 9.60513 20 9.9375V12C20 14.0057 19.2055 15.9294 17.791 17.3477C16.4304 18.7118 14.6031 19.5004 12.6855 19.5586V22.3125C12.6855 22.6922 12.3787 23 12 23C11.6213 23 11.3145 22.6922 11.3145 22.3125V19.5586C9.39691 19.5003 7.56956 18.7118 6.20898 17.3477C4.79446 15.9294 4 14.0057 4 12V9.9375C4 9.55786 4.30691 9.25009 4.68555 9.25C5.06426 9.25 5.37109 9.5578 5.37109 9.9375V12C5.37109 13.6409 6.0215 15.2146 7.17871 16.375C8.33608 17.5354 9.9062 18.1875 11.543 18.1875H12.457C14.0938 18.1875 15.6639 17.5354 16.8213 16.375C17.9785 15.2146 18.6289 13.6409 18.6289 12V9.9375C18.6289 9.5578 18.9357 9.25 19.3145 9.25L19.4521 9.26367Z" fill="#3C3B44"/>
<path fill-rule="evenodd" clip-rule="evenodd" d="M12 1C14.6542 1 16.8057 3.15729 16.8057 5.81836V11.9844C16.8056 14.6454 14.6541 16.8027 12 16.8027C9.34595 16.8027 7.19442 14.6453 7.19434 11.9844V5.81836C7.19434 3.15733 9.34589 1.00006 12 1ZM12 2.375C10.1033 2.37506 8.56543 3.91672 8.56543 5.81836V11.9844C8.56551 13.8859 10.1034 15.4277 12 15.4277C13.8967 15.4277 15.4345 13.886 15.4346 11.9844V5.81836C15.4346 3.91668 13.8967 2.375 12 2.375Z" fill="#3C3B44"/>
</g>
<defs>
<clipPath id="clip0_4191_682">
<rect width="24" height="24" fill="white"/>
</clipPath>
</defs>
</svg>

<svg xmlns="http://www.w3.org/2000/svg" width="24" height="24" fill="none" viewBox="0 0 24 24"><g fill="currentColor" clip-path="url(#a)"><path d="M19.452 9.264a.69.69 0 0 1 .548.674V12a7.57 7.57 0 0 1-2.209 5.348 7.53 7.53 0 0 1-5.106 2.21v2.755a.686.686 0 1 1-1.37 0v-2.754a7.53 7.53 0 0 1-5.106-2.211A7.57 7.57 0 0 1 4 12V9.938a.687.687 0 1 1 1.371 0V12c0 1.64.65 3.215 1.808 4.375a6.16 6.16 0 0 0 4.364 1.813h.914a6.16 6.16 0 0 0 4.364-1.813A6.2 6.2 0 0 0 18.63 12V9.938c0-.38.307-.688.685-.688z"/><path fill-rule="evenodd" d="M12 1a4.81 4.81 0 0 1 4.806 4.818v6.166A4.81 4.81 0 0 1 12 16.803a4.81 4.81 0 0 1-4.806-4.819V5.818A4.81 4.81 0 0 1 12 1m0 1.375a3.44 3.44 0 0 0-3.435 3.443v6.166A3.44 3.44 0 0 0 12 15.428a3.44 3.44 0 0 0 3.435-3.444V5.818A3.44 3.44 0 0 0 12 2.375" clip-rule="evenodd"/></g><defs><clipPath id="a"><path fill="currentColor" d="M0 0h24v24H0z"/></clipPath></defs></svg>
